public/avatar/hat/278.svg

<svg xmlns:xlink="http://www.w3.org/1999/xlink" height="92.9" width="100.7" xmlns="http://www.w3.org/2000/svg"><use height="24.55" transform="translate(21.65 43.25)" width="37.9" xlink:href="#a"/><defs><g id="a" fill-rule="evenodd"><path d="M13.5-.7q.45.9 1.05.95L16-.9l.45 1.8q.5.55 1.9-.9l-.45 2.25 2.25.05q-.85 1.55-1.45 1.8.25.8 2.2.9l-2.2 1.1 1.4 1.95-2.25-.1q.95 2.05.75 2.2-.2.15-2.25-.9l-.2 2.6-1.75-2q-.75 1.75-1.8 2.2l-.15-2.45Q11 10.8 10.4 11.05l.3-2.45-2.05.3.9-1.95-1.95-.4L9.15 5l-1.3-1.35q1.5.05 1.75-.6.15-.4-.35-1.05l-.6-.6 2.15.05q0-1.45-.4-2.15 1.1.05 2.15 1.15l.6-2 .35.85" fill="#1a171b" transform="translate(17 6.5)"/><path d="m15.25.8.1-.15.4.8 1 .45.45-.15v.1l-.35.55.5.5.95.5-.6.3.2.65.3.55.45.35-.15.05-1.5.35 1.25 1.2.15.25-1.95-.1.85 1.75-2-.95.25 2-1.4-1.4-.5 1.1-.25.4-.2-.65-.5-1-1.2 1.05.05-.6.2-1.1-1.75.25.25-.4.8-1.05-1.8-.4.4-.35.8-.55-.9-.95.85-.8-.05-1.15 1.3.35-.05-1.8 1.35 1.3.45-1.5q.45.45 1.05.55l.5.05.3-.35" fill="#aca285" transform="translate(17 6.5)"/><path d="m15.25.75.1-.1.4.75.1.1.9.35.45-.15v.15l-.35.55-.35.75 1.2.35-.75.6q.05.2 1.2.75l.05.05-1.85-.25.8 1.65-1.25-.45.2.95-.95-.4.15 1.35-.9-.8-.25 1.4-.5-1.15-.2 2-.7-1.6-.75.6.1-1.45q-1.35.5-1.3.4l.8-1.4L9.25 6l1.2-.95-.9-.9.85-.8-.05-1.15 1.3.35-.05-1.8 1.35 1.3.45-1.5q.45.45 1.05.55l.5.05.3-.4" fill="#ccc3aa" transform="translate(17 6.5)"/><path d="m11.65.9 1.65 2.05q-.35.95-1.65-2.05m2.35.5.5 2.25q-.5-.05-.65-.45L14 1.4m-1.2 2.5-.25.6-2.8.05L11.5 4q.5-.1-.85-1.45 1.1.45 2.15 1.35m-.55 2.25q-.95-.55-2.15-.65 2.3-.9 2.75-.2.15.25-.6.85m.8-1.4Q14 5 14.3 5.4q.25.35-.2.3l-1.05-.95m.65 4.1q-.05-1.45.45-2.25.4.2.45.7l-.9 1.55m3.7-2.3q-1-.05-1.3-.4-.35-.3.15-.35.55 0 1.15.75M15.25.9q.45.85.35 1.3l-.4.05.05-1.35" fill="#ece9e0" transform="translate(17 6.5)"/><path d="M4-6.45Q7-6.1 8.9-2.9l3.15 6.05Q14.9 7.6 15.9 14.7q.5 3.25.2 3.1l-3-1.05q-2.15-.95-2.45-3Q9.15 4.2-.5 4.25q-9.75.1-11 10.05-.25 2.05-2.45 3.1-1.7.8-3 .65-.25-.05.5-3.1l.35-1.75q.35-5.35 2.65-9.1 2.2-3.5 7.95-7.15Q.55-6.9 4-6.45" fill="#1a171b" transform="translate(17 6.5)"/><path d="M-5-2.4Q.75-6 3.9-5.6 7-5.25 9.5.15l1.85 3.45q2.3 3.7 3.1 9l1.1 3.85q-.1-.25-2.05-.65-1.8-.4-2-2.1Q10.3 3.45-.5 3.4q-10.15 0-11.85 10.85-.2 1.4-1.45 2.3-1.2.85-2.3.55l.8-3.7.05-.15q.25-5.05 2.55-8.7 2.1-3.4 7.7-6.95" fill="#ccc3aa" transform="translate(17 6.5)"/><path d="m10.85 2.65 1.4 2.7Q8.3 1.45.6 1.2q-4.8-.15-9.9 2.15l-4.2 2.35q.65-1.7 3.35-4.2L-7.6-.6l2.35-1.05q3.1-1 6.7-.9 5.75.2 8.05 2.6l1.35 2.6" fill="#1a171b" transform="translate(17 6.5)"/><path d="m10.85 2.65.95 1.7Q8.35.8.8.55-3.9.4-8.85 2.4l-4 2L-11 2.35l3.5-1.5Q-3.15-.6 1.15-.5q7.4.2 9.7 3.15" fill="#725d42" transform="translate(17 6.5)"/><path d="M2.1-1q5.2.5 8.2 2.8l.5.75Q6.8-.3 2.05-.5-4.3-.75-11 2.35l1.1-1 3.75-1.4Q-1.6-1.35 2.1-1M-15 10.85l4-1.55q-.85 1.7-1.05 3.55l-3.3 1.05.35-3.05m24.9-2.5 1.4.3q1.6.5 2.55 1.2.3.55.6 3.25-2-1.05-3.25-1.1L9.9 8.35" fill="#ece9e0" transform="translate(17 6.5)"/><path d="m-14.75 9.9 4.35-1.75-.55 1.05-4.05 1.65.25-.95m24-2.5q2.8.5 4.5 1.7l.15.8-4-1.55-.65-.95" fill="#725d42" transform="translate(17 6.5)"/><path d="m-15.35 13.9 3.3-1.05-.1.85-3.35 1.1.15-.9M11.2 12l3.4 1.1.15.75q-2.1-.7-3.45-.9l-.1-.95" fill="#1a171b" transform="translate(17 6.5)"/><path d="M3.9-5.6q2.55.3 4.15 2.95Q4.7-3.95 1.1-3.2q-3.85 1.55-5.65 7.15-6.45 1.85-7.8 10.3-.2 1.4-1.45 2.3-1.2.85-2.3.55l.8-3.7.05-.15q.25-5.05 2.55-8.7 2.1-3.4 7.7-6.95Q.75-6 3.9-5.6" fill="#f1eee7" transform="translate(17 6.5)"/><path d="m-7.6-.6 1.9-.85q2.5-.9 5.45-1.05-2.1 1.35-3.35 4.05-3.55.65-7.1 2.45l-2.8 1.7q.65-1.7 3.35-4.2L-7.6-.6" fill="#5f5c5f" transform="translate(17 6.5)"/><path d="m-11 2.35 2.35-1.1q3-1.15 6.1-1.55l-.7 1.15q-3.45.55-6.9 2.1l-2.7 1.45L-11 2.35" fill="#9b8b78" transform="translate(17 6.5)"/><path d="m-2.1-.9-.45.65q-4.2.6-8.45 2.6l1.1-1 2.3-.9q2.8-1 5.5-1.35" fill="#fdfdfc" transform="translate(17 6.5)"/><path d="m-15 10.85 4-1.55q-.85 1.7-1.05 3.55l-3.3 1.05.35-3.05" fill="#f8f8f4" transform="translate(17 6.5)"/><path d="m-14.75 9.9 4.35-1.75-.55 1.05-4.05 1.65.25-.95" fill="#9b8b78" transform="translate(17 6.5)"/><path d="m-15.35 13.9 3.3-1.05-.1.85-3.35 1.1.15-.9" fill="#5a575a" transform="translate(17 6.5)"/><path d="m5.15-6.05 3.1 1.55q3.5 2.4 5.6 6.75l-.2.4q-.25.15-.7-.65-3.65-5.65-7-6.8l-.8-1.25" fill="#1a171b" transform="translate(17 6.5)"/></g></defs></svg>

<?xml version="1.0" encoding="UTF-8" standalone="no"?>
<svg xmlns:xlink="http://www.w3.org/1999/xlink" height="92.9px" width="100.7px" xmlns="http://www.w3.org/2000/svg">
  <g transform="matrix(1.0, 0.0, 0.0, 1.0, 38.65, 49.75)">
    <use height="24.55" transform="matrix(1.0, 0.0, 0.0, 1.0, -17.0, -6.5)" width="37.9" xlink:href="#shape0"/>
  </g>
  <defs>
    <g id="shape0" transform="matrix(1.0, 0.0, 0.0, 1.0, 17.0, 6.5)">
      <path d="M13.5 -0.7 Q13.95 0.2 14.55 0.25 L16.0 -0.9 16.45 0.9 Q16.95 1.45 18.35 0.0 L17.9 2.25 20.15 2.3 Q19.3 3.85 18.7 4.1 18.95 4.9 20.9 5.0 L18.7 6.1 20.1 8.05 17.85 7.95 Q18.8 10.0 18.6 10.15 18.4 10.3 16.35 9.25 L16.15 11.85 14.4 9.85 Q13.65 11.6 12.6 12.05 L12.45 9.6 Q11.0 10.8 10.4 11.05 L10.7 8.6 8.65 8.9 9.55 6.95 7.6 6.55 9.15 5.0 7.85 3.65 Q9.35 3.7 9.6 3.05 9.75 2.65 9.25 2.0 L8.65 1.4 10.8 1.45 Q10.8 0.0 10.4 -0.7 11.5 -0.65 12.55 0.45 L13.15 -1.55 13.5 -0.7" fill="#1a171b" fill-rule="evenodd" stroke="none"/>
      <path d="M15.25 0.8 L15.35 0.65 15.75 1.45 16.75 1.9 17.2 1.75 17.2 1.85 16.85 2.4 17.35 2.9 18.3 3.4 17.7 3.7 17.9 4.35 18.2 4.9 18.65 5.25 18.5 5.3 17.0 5.65 18.25 6.85 18.4 7.1 16.45 7.0 17.3 8.75 15.3 7.8 15.55 9.8 14.15 8.4 13.65 9.5 13.4 9.9 13.2 9.25 12.7 8.25 11.5 9.3 11.55 8.7 11.75 7.6 10.0 7.85 10.25 7.45 11.05 6.4 9.25 6.0 9.65 5.65 10.45 5.1 9.55 4.15 10.4 3.35 10.35 2.2 11.65 2.55 11.6 0.75 12.95 2.05 13.4 0.55 Q13.85 1.0 14.45 1.1 L14.95 1.15 15.25 0.8" fill="#aca285" fill-rule="evenodd" stroke="none"/>
      <path d="M15.25 0.75 L15.35 0.65 15.75 1.4 15.85 1.5 16.75 1.85 17.2 1.7 17.2 1.85 16.85 2.4 16.5 3.15 17.7 3.5 16.95 4.1 Q17.0 4.3 18.15 4.85 L18.2 4.9 16.35 4.65 17.15 6.3 15.9 5.85 16.1 6.8 15.15 6.4 15.3 7.75 14.4 6.95 14.15 8.35 13.65 7.2 13.45 9.2 12.75 7.6 12.0 8.2 12.1 6.75 Q10.75 7.25 10.8 7.15 L11.6 5.75 9.25 6.0 10.45 5.05 9.55 4.15 10.4 3.35 10.35 2.2 11.65 2.55 11.6 0.75 12.95 2.05 13.4 0.55 Q13.85 1.0 14.45 1.1 L14.95 1.15 15.25 0.75" fill="#ccc3aa" fill-rule="evenodd" stroke="none"/>
      <path d="M11.65 0.9 L13.3 2.95 Q12.95 3.9 11.65 0.9" fill="#ece9e0" fill-rule="evenodd" stroke="none"/>
      <path d="M14.0 1.4 L14.5 3.65 Q14.0 3.6 13.85 3.2 L14.0 1.4" fill="#ece9e0" fill-rule="evenodd" stroke="none"/>
      <path d="M12.8 3.9 L12.55 4.5 9.75 4.55 11.5 4.0 Q12.0 3.9 10.65 2.55 11.75 3.0 12.8 3.9" fill="#ece9e0" fill-rule="evenodd" stroke="none"/>
      <path d="M12.25 6.15 Q11.3 5.6 10.1 5.5 12.4 4.6 12.85 5.3 13.0 5.55 12.25 6.15" fill="#ece9e0" fill-rule="evenodd" stroke="none"/>
      <path d="M13.05 4.75 Q14.0 5.0 14.3 5.4 14.55 5.75 14.1 5.7 L13.05 4.75" fill="#ece9e0" fill-rule="evenodd" stroke="none"/>
      <path d="M13.7 8.85 Q13.65 7.4 14.15 6.6 14.55 6.8 14.6 7.3 L13.7 8.85" fill="#ece9e0" fill-rule="evenodd" stroke="none"/>
      <path d="M17.4 6.55 Q16.4 6.5 16.1 6.15 15.75 5.85 16.25 5.8 16.8 5.8 17.4 6.55" fill="#ece9e0" fill-rule="evenodd" stroke="none"/>
      <path d="M15.25 0.9 Q15.7 1.75 15.6 2.2 L15.2 2.25 15.25 0.9" fill="#ece9e0" fill-rule="evenodd" stroke="none"/>
      <path d="M4.0 -6.45 Q7.0 -6.1 8.9 -2.9 L12.05 3.15 Q14.9 7.6 15.9 14.7 16.4 17.95 16.1 17.8 L13.1 16.75 Q10.95 15.8 10.65 13.75 9.15 4.2 -0.5 4.25 -10.25 4.35 -11.5 14.3 -11.75 16.35 -13.95 17.4 -15.65 18.2 -16.95 18.05 -17.2 18.0 -16.45 14.95 L-16.1 13.2 Q-15.75 7.85 -13.45 4.1 -11.25 0.6 -5.5 -3.05 0.55 -6.9 4.0 -6.45" fill="#1a171b" fill-rule="evenodd" stroke="none"/>
      <path d="M-5.0 -2.4 Q0.75 -6.0 3.9 -5.6 7.0 -5.25 9.5 0.15 L11.35 3.6 Q13.65 7.3 14.45 12.6 L15.55 16.45 Q15.45 16.2 13.5 15.8 11.7 15.4 11.5 13.7 10.3 3.45 -0.5 3.4 -10.65 3.4 -12.35 14.25 -12.55 15.65 -13.8 16.55 -15.0 17.4 -16.1 17.1 L-15.3 13.4 -15.25 13.25 Q-15.0 8.2 -12.7 4.55 -10.6 1.15 -5.0 -2.4" fill="#ccc3aa" fill-rule="evenodd" stroke="none"/>
      <path d="M10.85 2.65 L12.25 5.35 Q8.3 1.45 0.6 1.2 -4.2 1.05 -9.3 3.35 L-13.5 5.7 Q-12.85 4.0 -10.15 1.5 L-7.6 -0.6 -5.25 -1.65 Q-2.15 -2.65 1.45 -2.55 7.2 -2.35 9.5 0.05 L10.85 2.65" fill="#1a171b" fill-rule="evenodd" stroke="none"/>
      <path d="M10.85 2.65 L11.8 4.35 Q8.35 0.8 0.8 0.55 -3.9 0.4 -8.85 2.4 L-12.85 4.4 -11.0 2.35 -7.5 0.85 Q-3.15 -0.6 1.15 -0.5 8.55 -0.3 10.85 2.65" fill="#725d42" fill-rule="evenodd" stroke="none"/>
      <path d="M2.1 -1.0 Q7.3 -0.5 10.3 1.8 L10.8 2.55 Q6.8 -0.3 2.05 -0.5 -4.3 -0.75 -11.0 2.35 L-9.9 1.35 -6.15 -0.05 Q-1.6 -1.35 2.1 -1.0" fill="#ece9e0" fill-rule="evenodd" stroke="none"/>
      <path d="M-15.0 10.85 L-11.0 9.3 Q-11.85 11.0 -12.05 12.85 L-15.35 13.9 -15.0 10.85" fill="#ece9e0" fill-rule="evenodd" stroke="none"/>
      <path d="M9.9 8.35 L11.3 8.65 Q12.9 9.15 13.85 9.85 14.15 10.4 14.45 13.1 12.45 12.05 11.2 12.0 L9.9 8.35" fill="#ece9e0" fill-rule="evenodd" stroke="none"/>
      <path d="M-14.75 9.9 L-10.4 8.15 -10.95 9.2 -15.0 10.85 -14.75 9.9" fill="#725d42" fill-rule="evenodd" stroke="none"/>
      <path d="M9.25 7.4 Q12.05 7.9 13.75 9.1 L13.9 9.9 9.9 8.35 9.25 7.4" fill="#725d42" fill-rule="evenodd" stroke="none"/>
      <path d="M-15.35 13.9 L-12.05 12.85 -12.15 13.7 -15.5 14.8 -15.35 13.9" fill="#1a171b" fill-rule="evenodd" stroke="none"/>
      <path d="M11.2 12.0 L14.6 13.1 14.75 13.85 Q12.65 13.15 11.3 12.95 L11.2 12.0" fill="#1a171b" fill-rule="evenodd" stroke="none"/>
      <path d="M3.9 -5.6 Q6.45 -5.3 8.05 -2.65 4.7 -3.95 1.1 -3.2 -2.75 -1.65 -4.55 3.95 -11.0 5.8 -12.35 14.25 -12.55 15.65 -13.8 16.55 -15.0 17.4 -16.1 17.1 L-15.3 13.4 -15.25 13.25 Q-15.0 8.2 -12.7 4.55 -10.6 1.15 -5.0 -2.4 0.75 -6.0 3.9 -5.6" fill="#f1eee7" fill-rule="evenodd" stroke="none"/>
      <path d="M-7.6 -0.6 L-5.7 -1.45 Q-3.2 -2.35 -0.25 -2.5 -2.35 -1.15 -3.6 1.55 -7.15 2.2 -10.7 4.0 L-13.5 5.7 Q-12.85 4.0 -10.15 1.5 L-7.6 -0.6" fill="#5f5c5f" fill-rule="evenodd" stroke="none"/>
      <path d="M-11.0 2.35 L-8.65 1.25 Q-5.65 0.1 -2.55 -0.3 L-3.25 0.85 Q-6.7 1.4 -10.15 2.95 L-12.85 4.4 -11.0 2.35" fill="#9b8b78" fill-rule="evenodd" stroke="none"/>
      <path d="M-2.1 -0.9 L-2.55 -0.25 Q-6.75 0.35 -11.0 2.35 L-9.9 1.35 -7.6 0.45 Q-4.8 -0.55 -2.1 -0.9" fill="#fdfdfc" fill-rule="evenodd" stroke="none"/>
      <path d="M-15.0 10.85 L-11.0 9.3 Q-11.85 11.0 -12.05 12.85 L-15.35 13.9 -15.0 10.85" fill="#f8f8f4" fill-rule="evenodd" stroke="none"/>
      <path d="M-14.75 9.9 L-10.4 8.15 -10.95 9.2 -15.0 10.85 -14.75 9.9" fill="#9b8b78" fill-rule="evenodd" stroke="none"/>
      <path d="M-15.35 13.9 L-12.05 12.85 -12.15 13.7 -15.5 14.8 -15.35 13.9" fill="#5a575a" fill-rule="evenodd" stroke="none"/>
      <path d="M5.15 -6.05 L8.25 -4.5 Q11.75 -2.1 13.85 2.25 L13.65 2.65 Q13.4 2.8 12.95 2.0 9.3 -3.65 5.95 -4.8 L5.15 -6.05" fill="#1a171b" fill-rule="evenodd" stroke="none"/>
    </g>
  </defs>
</svg>
